X: 10911
T: the FLOWERS OF EDINBURGH
%R: reel
B: "Edinburgh Repository of Music" v.1 p.91 #1
F: http://digital.nls.uk/special-collections-of-printed-music/pageturner.cfm?id=87776133
Z: 2015 John Chambers <jc:trillian.mit.edu>
M: C
L: 1/8
K: G
D2 |\
D3E G3A | (BG) (dG) {c}B2AG |\
F3E D>E F>G | A<F d<F E3F |\
D3E G3A |
B>ABd e2 (e/f/g) |\
(cB) (AG) {B}A2 (GA) | B2A>G G2 :|\
|: (d/e/f) |\
(g>f)(ga) gbag | f>efg fagf |
(e>def) (gf)(ed) | B2e>f e2 (e/f/g) |\
{c}B2AG d2(cB) | edef Hg3 {ab}B |\
(cB) AG A2GA | B2 TA>G G2 :|
